img/map-icon.svg

<svg width="15" height="14" viewBox="0 0 15 14" fill="none" xmlns="http://www.w3.org/2000/svg">
<path fill-rule="evenodd" clip-rule="evenodd" d="M7.49886 1.16667C6.26118 1.16667 5.0742 1.65833 4.19903 2.5335C3.32386 3.40867 2.83219 4.59566 2.83219 5.83333C2.83219 7.64053 4.00804 9.39415 5.29733 10.7551C5.93005 11.4229 6.56475 11.9697 7.04192 12.3497C7.21951 12.4911 7.37462 12.6089 7.49886 12.7007C7.6231 12.6089 7.77821 12.4911 7.9558 12.3497C8.43297 11.9697 9.06767 11.4229 9.70039 10.7551C10.9897 9.39415 12.1655 7.64053 12.1655 5.83333C12.1655 4.59566 11.6739 3.40867 10.7987 2.5335C9.92352 1.65833 8.73654 1.16667 7.49886 1.16667ZM7.49886 13.4167C7.17529 13.902 7.17514 13.9019 7.17497 13.9018L7.1733 13.9007L7.16942 13.8981L7.15605 13.8891C7.14469 13.8813 7.12849 13.8703 7.10777 13.8559C7.06634 13.8272 7.0068 13.7854 6.93174 13.7312C6.78168 13.6228 6.56924 13.4646 6.31517 13.2623C5.80797 12.8584 5.13017 12.275 4.45039 11.5574C3.11468 10.1475 1.66553 8.10947 1.66553 5.83333C1.66553 4.28624 2.28011 2.80251 3.37407 1.70854C4.46803 0.614581 5.95176 0 7.49886 0C9.04596 0 10.5297 0.614581 11.6237 1.70854C12.7176 2.80251 13.3322 4.28624 13.3322 5.83333C13.3322 8.10947 11.883 10.1475 10.5473 11.5574C9.86755 12.275 9.18975 12.8584 8.68255 13.2623C8.42848 13.4646 8.21604 13.6228 8.06598 13.7312C7.99092 13.7854 7.93139 13.8272 7.88995 13.8559C7.86923 13.8703 7.85303 13.8813 7.84168 13.8891L7.82831 13.8981L7.82442 13.9007L7.82319 13.9015C7.82302 13.9016 7.82244 13.902 7.49886 13.4167ZM7.49886 13.4167L7.82244 13.902C7.62649 14.0327 7.37091 14.0324 7.17497 13.9018L7.49886 13.4167Z" fill="white"/>
<path fill-rule="evenodd" clip-rule="evenodd" d="M7.49886 4.66667C6.85453 4.66667 6.33219 5.189 6.33219 5.83333C6.33219 6.47767 6.85453 7 7.49886 7C8.14319 7 8.66553 6.47767 8.66553 5.83333C8.66553 5.189 8.14319 4.66667 7.49886 4.66667ZM5.16553 5.83333C5.16553 4.54467 6.2102 3.5 7.49886 3.5C8.78753 3.5 9.83219 4.54467 9.83219 5.83333C9.83219 7.122 8.78753 8.16667 7.49886 8.16667C6.2102 8.16667 5.16553 7.122 5.16553 5.83333Z" fill="white"/>
</svg>

<svg width="15" height="14" fill="none" xmlns="http://www.w3.org/2000/svg"><path fill-rule="evenodd" clip-rule="evenodd" d="M7.499 1.167a4.667 4.667 0 00-4.667 4.666c0 1.808 1.176 3.561 2.465 4.922A17.178 17.178 0 007.5 12.701 17.178 17.178 0 009.7 10.755c1.289-1.36 2.464-3.114 2.464-4.922A4.667 4.667 0 007.5 1.167zm0 12.25l-.324.485-.002-.001-.004-.003-.013-.009-.048-.033a16.67 16.67 0 01-.793-.594 18.328 18.328 0 01-1.865-1.705c-1.335-1.41-2.784-3.448-2.784-5.724a5.833 5.833 0 0111.666 0c0 2.276-1.449 4.315-2.785 5.724a18.325 18.325 0 01-2.657 2.299l-.048.033-.014.01-.004.002c-.001 0-.002.001-.325-.484zm0 0l.323.485a.584.584 0 01-.647 0l.324-.485z" fill="#fff"/><path fill-rule="evenodd" clip-rule="evenodd" d="M7.499 4.667a1.167 1.167 0 100 2.333 1.167 1.167 0 000-2.333zM5.166 5.833a2.333 2.333 0 114.666 0 2.333 2.333 0 01-4.666 0z" fill="#fff"/></svg>
